X: 3362
M: C
L: 1/8
K: Bb
|:\
(FB)TB2 G>B_G>B | (FB)TB2 G>B_G>B |\
(FB)TB2 G>B_G>B | (FB)TB2 G>B_G>B |\
|:\
d'4 ^c'2=c'2 | b2b2 a4 |\
!2!g>^fg>b a>fd2 | g>^fg>b a>fd2 |\
d'4 ^c'2=c'2 | b2b2 a4 |\
g>^fg>b a>fd2 | (3DED (3CB,A, G,2z2 :|


